22x22/panel/synergy-panel.svg

<svg xmlns="http://www.w3.org/2000/svg" width="22" height="22"><defs><style id="current-color-scheme" type="text/css">.ColorScheme-Text{color:#d3dae3}</style></defs><path style="opacity:.3;fill:currentColor" class="ColorScheme-Text" d="M11 3a8 8 0 0 0-8 8l1.5 2L6 11a5 5 0 0 1 5-5L9 4.5 11 3zm6.5 6L16 11a5 5 0 0 1-5 5l2 1.5-2 1.5a8 8 0 0 0 8-8l-1.5-2z"/><path style="fill:currentColor" class="ColorScheme-Text" d="M11 3 9 4.5 11 6a5 5 0 0 1 5 5l1.5-2 1.5 2a8 8 0 0 0-8-8zm-8 8a8 8 0 0 0 8 8l2-1.5-2-1.5a5 5 0 0 1-5-5l-1.5 2L3 11z"/></svg>

<svg xmlns="http://www.w3.org/2000/svg" width="22" height="22" version="1.1">
 <defs>
  <style id="current-color-scheme" type="text/css">
   .ColorScheme-Text { color:#d3dae3; } .ColorScheme-Highlight { color:#4285f4; }
  </style>
 </defs>
 <path style="opacity:0.3;fill:currentColor" class="ColorScheme-Text" d="M 11 3 A 8 8 0 0 0 3 11 L 4.5 13 L 6 11 A 5 5 0 0 1 11 6 L 9 4.5 L 11 3 z M 17.5 9 L 16 11 A 5 5 0 0 1 11 16 L 13 17.5 L 11 19 A 8 8 0 0 0 19 11 L 17.5 9 z"/>
 <path style="fill:currentColor" class="ColorScheme-Text" d="M 11 3 L 9 4.5 L 11 6 A 5 5 0 0 1 16 11 L 17.5 9 L 19 11 A 8 8 0 0 0 11 3 z M 3 11 A 8 8 0 0 0 11 19 L 13 17.5 L 11 16 A 5 5 0 0 1 6 11 L 4.5 13 L 3 11 z"/>
</svg>
